;G-code generated by compas_slicer
;Generated: 2026-06-18 23:11:18
;MIT License

T0                             ;select tool 0
G21                            ;metric units
G90                            ;absolute positioning
M107                           ;fan off

M140 S60                       ;set bed temp (no wait)
M104 S200                      ;set extruder temp (no wait)
M109 S200                      ;wait for extruder temp
M190 S60                       ;wait for bed temp

G21                            ;metric units
G90                            ;absolute positioning
M83                            ;relative extrusion

G28 X0 Y0                      ;home X and Y
G28 Z0                         ;home Z

;Purge line
G1 F4500                       ;set feedrate
G1 Z0.2                        ;move to purge height
G1 X5.0 Y5.0                   ;move to purge start
G1 Y150.0 E96.454              ;purge line 1
G1 X13.000                     ;step over
G1 Y5.0 E96.454                ;purge line 2
G1 Z2                          ;lift nozzle
G92 E0                         ;reset extruder position
G1 F3600                       ;set travel feedrate
M117 Printing...               ;LCD status

;Begin toolpath
G1 F2400.0                     ;retraction feedrate
G1 E-1.0                       ;retract
G1 Z0.500                      ;z-hop
G1 F3600                       ;travel feedrate
G1 X2500.000 Y200.000 Z0.000
G1 F2400.0                     ;retraction feedrate
G1 Z0.000                      ;reverse z-hop
G1 E1.0                        ;unretract
G1 F1800                       ;print feedrate
M106 S255                      ;fan on
G1 X0.000 Y200.000 E83150.338
G1 X0.000 Y0.000 E6652.027
G1 X2500.000 Y0.000 E83150.338
G1 X2500.000 Y75.000 E2494.510
G1 X2500.000 Y200.000 E4157.517
G1 F2400.0                     ;retraction feedrate
G1 E-1.0                       ;retract
G1 Z0.500                      ;z-hop
G1 F3600                       ;travel feedrate
G1 X3500.000 Y200.000 Z0.000
G1 F2400.0                     ;retraction feedrate
G1 Z0.000                      ;reverse z-hop
G1 E1.0                        ;unretract
G1 F1800                       ;print feedrate
G1 X3500.000 Y25.000 E5820.524
G1 X3500.000 Y0.000 E831.503
G1 X4000.000 Y0.000 E16630.068
G1 X4200.000 Y0.000 E6652.027
G1 X4500.000 Y0.000 E9978.041
G1 X4500.000 Y300.000 E9978.041
G1 X4200.000 Y300.000 E9978.041
G1 X4200.000 Y1000.000 E23282.095
G1 X4000.000 Y1000.000 E6652.027
G1 X4000.000 Y200.000 E26608.108
G1 X3500.000 Y200.000 E16630.068
G1 F2400.0                     ;retraction feedrate
G1 E-1.0                       ;retract
G1 Z0.500                      ;z-hop
G1 F3600                       ;travel feedrate
G1 X2500.000 Y200.000 Z10.000
G1 F2400.0                     ;retraction feedrate
G1 Z10.000                     ;reverse z-hop
G1 E1.0                        ;unretract
G1 F1800                       ;print feedrate
G1 X2487.500 Y200.000 E415.752
G1 X18.750 Y200.000 E82110.958
G1 X16.667 Y200.000 E69.292
G1 X6.250 Y200.000 E346.460
G1 X0.000 Y200.000 E207.876
G1 X0.000 Y0.833 E6624.310
G1 X0.000 Y0.000 E27.717
G1 X6.250 Y0.000 E207.876
G1 X18.750 Y0.000 E415.752
G1 X2487.500 Y0.000 E82110.958
G1 X2500.000 Y0.000 E415.752
G1 X2500.000 Y0.952 E31.676
G1 X2500.000 Y1.333 E12.671
G1 X2500.000 Y3.704 E78.839
G1 X2500.000 Y4.167 E15.398
G1 X2500.000 Y77.604 E2442.541
G1 X2500.000 Y200.000 E4070.902
G1 F2400.0                     ;retraction feedrate
G1 E-1.0                       ;retract
G1 Z10.500                     ;z-hop
G1 F3600                       ;travel feedrate
G1 X3500.000 Y200.000 Z10.000
G1 F2400.0                     ;retraction feedrate
G1 Z10.000                     ;reverse z-hop
G1 E1.0                        ;unretract
G1 F1800                       ;print feedrate
G1 X3500.000 Y199.048 E31.676
G1 X3500.000 Y193.333 E190.058
G1 X3500.000 Y187.500 E194.017
G1 X3500.000 Y23.438 E5456.741
G1 X3500.000 Y0.000 E779.534
G1 X3968.750 Y0.000 E15590.688
G1 X3983.333 Y0.000 E485.044
G1 X3997.619 Y0.000 E475.145
G1 X4000.000 Y0.000 E79.191
G1 X4199.167 Y0.000 E6624.310
G1 X4200.000 Y0.000 E27.717
G1 X4498.750 Y0.000 E9936.465
G1 X4500.000 Y0.000 E41.575
G1 X4500.000 Y298.750 E9936.465
G1 X4500.000 Y300.000 E41.575
G1 X4201.250 Y300.000 E9936.465
G1 X4200.000 Y300.000 E41.575
G1 X4200.000 Y983.796 E22743.157
G1 X4200.000 Y995.833 E400.353
G1 X4200.000 Y998.889 E101.628
G1 X4200.000 Y1000.000 E36.956
G1 X4000.833 Y1000.000 E6624.310
G1 X4000.000 Y1000.000 E27.717
G1 X4000.000 Y998.889 E36.956
G1 X4000.000 Y993.056 E194.017
G1 X4000.000 Y983.333 E323.362
G1 X4000.000 Y200.000 E26053.772
G1 X3997.619 Y200.000 E79.191
G1 X3972.222 Y200.000 E844.702
G1 X3968.750 Y200.000 E115.487
G1 X3500.000 Y200.000 E15590.688
G1 F2400.0                     ;retraction feedrate
G1 E-1.0                       ;retract
G1 Z10.500                     ;z-hop
G1 F3600                       ;travel feedrate
G1 X2500.000 Y200.000 Z20.000
G1 F2400.0                     ;retraction feedrate
G1 Z20.000                     ;reverse z-hop
G1 E1.0                        ;unretract
G1 F1800                       ;print feedrate
G1 X2475.000 Y200.000 E831.503
G1 X37.500 Y200.000 E81071.579
G1 X33.333 Y200.000 E138.584
G1 X12.500 Y200.000 E692.919
G1 X0.000 Y200.000 E415.752
G1 X0.000 Y1.667 E6596.593
G1 X0.000 Y0.000 E55.434
G1 X12.500 Y0.000 E415.752
G1 X37.500 Y0.000 E831.503
G1 X2475.000 Y0.000 E81071.579
G1 X2500.000 Y0.000 E831.503
G1 X2500.000 Y1.905 E63.353
G1 X2500.000 Y2.667 E25.341
G1 X2500.000 Y7.407 E157.678
G1 X2500.000 Y8.333 E30.796
G1 X2500.000 Y80.208 E2390.572
G1 X2500.000 Y200.000 E3984.287
G1 F2400.0                     ;retraction feedrate
G1 E-1.0                       ;retract
G1 Z20.500                     ;z-hop
G1 F3600                       ;travel feedrate
G1 X3500.000 Y200.000 Z20.000
G1 F2400.0                     ;retraction feedrate
G1 Z20.000                     ;reverse z-hop
G1 E1.0                        ;unretract
G1 F1800                       ;print feedrate
G1 X3500.000 Y198.095 E63.353
G1 X3500.000 Y186.667 E380.116
G1 X3500.000 Y175.000 E388.035
G1 X3500.000 Y21.875 E5092.958
G1 X3500.000 Y0.000 E727.565
G1 X3937.500 Y0.000 E14551.309
G1 X3966.667 Y0.000 E970.087
G1 X3995.238 Y0.000 E950.290
G1 X4000.000 Y0.000 E158.382
G1 X4198.333 Y0.000 E6596.593
G1 X4200.000 Y0.000 E55.434
G1 X4497.500 Y0.000 E9894.890
G1 X4500.000 Y0.000 E83.150
G1 X4500.000 Y297.500 E9894.890
G1 X4500.000 Y300.000 E83.150
G1 X4202.500 Y300.000 E9894.890
G1 X4200.000 Y300.000 E83.150
G1 X4200.000 Y967.593 E22204.220
G1 X4200.000 Y991.667 E800.707
G1 X4200.000 Y997.778 E203.256
G1 X4200.000 Y1000.000 E73.911
G1 X4001.667 Y1000.000 E6596.593
G1 X4000.000 Y1000.000 E55.434
G1 X4000.000 Y997.778 E73.911
G1 X4000.000 Y986.111 E388.035
G1 X4000.000 Y966.667 E646.725
G1 X4000.000 Y200.000 E25499.437
G1 X3995.238 Y200.000 E158.382
G1 X3944.444 Y200.000 E1689.404
G1 X3937.500 Y200.000 E230.973
G1 X3500.000 Y200.000 E14551.309
G1 F2400.0                     ;retraction feedrate
G1 E-1.0                       ;retract
G1 Z20.500                     ;z-hop
G1 F3600                       ;travel feedrate
G1 X2500.000 Y200.000 Z30.000
G1 F2400.0                     ;retraction feedrate
G1 Z30.000                     ;reverse z-hop
G1 E1.0                        ;unretract
G1 F1800                       ;print feedrate
G1 X2462.500 Y200.000 E1247.255
G1 X56.250 Y200.000 E80032.200
G1 X50.000 Y200.000 E207.876
G1 X18.750 Y200.000 E1039.379
G1 X0.000 Y200.000 E623.628
G1 X0.000 Y2.500 E6568.877
G1 X0.000 Y0.000 E83.150
G1 X18.750 Y0.000 E623.628
G1 X56.250 Y0.000 E1247.255
G1 X2462.500 Y0.000 E80032.200
G1 X2500.000 Y0.000 E1247.255
G1 X2500.000 Y2.857 E95.029
G1 X2500.000 Y4.000 E38.012
G1 X2500.000 Y11.111 E236.517
G1 X2500.000 Y12.500 E46.195
G1 X2500.000 Y82.812 E2338.603
G1 X2500.000 Y200.000 E3897.672
G1 F2400.0                     ;retraction feedrate
G1 E-1.0                       ;retract
G1 Z30.500                     ;z-hop
G1 F3600                       ;travel feedrate
G1 X3500.000 Y200.000 Z30.000
G1 F2400.0                     ;retraction feedrate
G1 Z30.000                     ;reverse z-hop
G1 E1.0                        ;unretract
G1 F1800                       ;print feedrate
G1 X3500.000 Y197.143 E95.029
G1 X3500.000 Y180.000 E570.174
G1 X3500.000 Y162.500 E582.052
G1 X3500.000 Y20.312 E4729.175
G1 X3500.000 Y0.000 E675.596
G1 X3906.250 Y0.000 E13511.930
G1 X3950.000 Y0.000 E1455.131
G1 X3992.857 Y0.000 E1425.434
G1 X4000.000 Y0.000 E237.572
G1 X4197.500 Y0.000 E6568.877
G1 X4200.000 Y0.000 E83.150
G1 X4496.250 Y0.000 E9853.315
G1 X4500.000 Y0.000 E124.726
G1 X4500.000 Y296.250 E9853.315
G1 X4500.000 Y300.000 E124.726
G1 X4203.750 Y300.000 E9853.315
G1 X4200.000 Y300.000 E124.726
G1 X4200.000 Y951.389 E21665.282
G1 X4200.000 Y987.500 E1201.060
G1 X4200.000 Y996.667 E304.885
G1 X4200.000 Y1000.000 E110.867
G1 X4002.500 Y1000.000 E6568.877
G1 X4000.000 Y1000.000 E83.150
G1 X4000.000 Y996.667 E110.867
G1 X4000.000 Y979.167 E582.052
G1 X4000.000 Y950.000 E970.087
G1 X4000.000 Y200.000 E24945.101
G1 X3992.857 Y200.000 E237.572
G1 X3916.667 Y200.000 E2534.106
G1 X3906.250 Y200.000 E346.460
G1 X3500.000 Y200.000 E13511.930
G1 F2400.0                     ;retraction feedrate
G1 E-1.0                       ;retract
G1 Z30.500                     ;z-hop
G1 F3600                       ;travel feedrate
G1 X2500.000 Y200.000 Z40.000
G1 F2400.0                     ;retraction feedrate
G1 Z40.000                     ;reverse z-hop
G1 E1.0                        ;unretract
G1 F1800                       ;print feedrate
G1 X2450.000 Y200.000 E1663.007
G1 X75.000 Y200.000 E78992.821
G1 X66.667 Y200.000 E277.168
G1 X25.000 Y200.000 E1385.839
G1 X0.000 Y200.000 E831.503
G1 X0.000 Y3.333 E6541.160
G1 X0.000 Y0.000 E110.867
G1 X25.000 Y0.000 E831.503
G1 X75.000 Y0.000 E1663.007
G1 X2450.000 Y0.000 E78992.821
G1 X2500.000 Y0.000 E1663.007
G1 X2500.000 Y3.810 E126.705
G1 X2500.000 Y5.333 E50.682
G1 X2500.000 Y14.815 E315.355
G1 X2500.000 Y16.667 E61.593
G1 X2500.000 Y85.417 E2286.634
G1 X2500.000 Y200.000 E3811.057
G1 F2400.0                     ;retraction feedrate
G1 E-1.0                       ;retract
G1 Z40.500                     ;z-hop
G1 F3600                       ;travel feedrate
G1 X3500.000 Y200.000 Z40.000
G1 F2400.0                     ;retraction feedrate
G1 Z40.000                     ;reverse z-hop
G1 E1.0                        ;unretract
G1 F1800                       ;print feedrate
G1 X3500.000 Y196.190 E126.705
G1 X3500.000 Y173.333 E760.232
G1 X3500.000 Y150.000 E776.070
G1 X3500.000 Y18.750 E4365.393
G1 X3500.000 Y0.000 E623.628
G1 X3875.000 Y0.000 E12472.551
G1 X3933.333 Y0.000 E1940.175
G1 X3990.476 Y0.000 E1900.579
G1 X4000.000 Y0.000 E316.763
G1 X4196.667 Y0.000 E6541.160
G1 X4200.000 Y0.000 E110.867
G1 X4495.000 Y0.000 E9811.740
G1 X4500.000 Y0.000 E166.301
G1 X4500.000 Y295.000 E9811.740
G1 X4500.000 Y300.000 E166.301
G1 X4205.000 Y300.000 E9811.740
G1 X4200.000 Y300.000 E166.301
G1 X4200.000 Y935.185 E21126.345
G1 X4200.000 Y983.333 E1601.414
G1 X4200.000 Y995.556 E406.513
G1 X4200.000 Y1000.000 E147.823
G1 X4003.333 Y1000.000 E6541.160
G1 X4000.000 Y1000.000 E110.867
G1 X4000.000 Y995.556 E147.823
G1 X4000.000 Y972.222 E776.070
G1 X4000.000 Y933.333 E1293.450
G1 X4000.000 Y200.000 E24390.766
G1 X3990.476 Y200.000 E316.763
G1 X3888.889 Y200.000 E3378.807
G1 X3875.000 Y200.000 E461.946
G1 X3500.000 Y200.000 E12472.551
G1 F2400.0                     ;retraction feedrate
G1 E-1.0                       ;retract
G1 Z40.500                     ;z-hop
G1 F3600                       ;travel feedrate
G1 X2500.000 Y200.000 Z50.000
G1 F2400.0                     ;retraction feedrate
G1 Z50.000                     ;reverse z-hop
G1 E1.0                        ;unretract
G1 F1800                       ;print feedrate
G1 X2437.500 Y200.000 E2078.758
G1 X93.750 Y200.000 E77953.442
G1 X83.333 Y200.000 E346.460
G1 X31.250 Y200.000 E1732.299
G1 X0.000 Y200.000 E1039.379
G1 X0.000 Y4.167 E6513.443
G1 X0.000 Y0.000 E138.584
G1 X31.250 Y0.000 E1039.379
G1 X93.750 Y0.000 E2078.758
G1 X2437.500 Y0.000 E77953.442
G1 X2500.000 Y0.000 E2078.758
G1 X2500.000 Y4.762 E158.382
G1 X2500.000 Y6.667 E63.353
G1 X2500.000 Y18.519 E394.194
G1 X2500.000 Y20.833 E76.991
G1 X2500.000 Y88.021 E2234.665
G1 X2500.000 Y200.000 E3724.442
G1 F2400.0                     ;retraction feedrate
G1 E-1.0                       ;retract
G1 Z50.500                     ;z-hop
G1 F3600                       ;travel feedrate
G1 X3500.000 Y200.000 Z50.000
G1 F2400.0                     ;retraction feedrate
G1 Z50.000                     ;reverse z-hop
G1 E1.0                        ;unretract
G1 F1800                       ;print feedrate
G1 X3500.000 Y195.238 E158.382
G1 X3500.000 Y166.667 E950.290
G1 X3500.000 Y137.500 E970.087
G1 X3500.000 Y17.188 E4001.610
G1 X3500.000 Y0.000 E571.659
G1 X3843.750 Y0.000 E11433.171
G1 X3916.667 Y0.000 E2425.218
G1 X3988.095 Y0.000 E2375.724
G1 X4000.000 Y0.000 E395.954
G1 X4195.833 Y0.000 E6513.443
G1 X4200.000 Y0.000 E138.584
G1 X4493.750 Y0.000 E9770.165
G1 X4500.000 Y0.000 E207.876
G1 X4500.000 Y293.750 E9770.165
G1 X4500.000 Y300.000 E207.876
G1 X4206.250 Y300.000 E9770.165
G1 X4200.000 Y300.000 E207.876
G1 X4200.000 Y918.981 E20587.408
G1 X4200.000 Y979.167 E2001.767
G1 X4200.000 Y994.444 E508.141
G1 X4200.000 Y1000.000 E184.779
G1 X4004.167 Y1000.000 E6513.443
G1 X4000.000 Y1000.000 E138.584
G1 X4000.000 Y994.444 E184.779
G1 X4000.000 Y965.278 E970.087
G1 X4000.000 Y916.667 E1616.812
G1 X4000.000 Y200.000 E23836.430
G1 X3988.095 Y200.000 E395.954
G1 X3861.111 Y200.000 E4223.509
G1 X3843.750 Y200.000 E577.433
G1 X3500.000 Y200.000 E11433.171
G1 F2400.0                     ;retraction feedrate
G1 E-1.0                       ;retract
G1 Z50.500                     ;z-hop
G1 F3600                       ;travel feedrate
G1 X2500.000 Y200.000 Z60.000
G1 F2400.0                     ;retraction feedrate
G1 Z60.000                     ;reverse z-hop
G1 E1.0                        ;unretract
G1 F1800                       ;print feedrate
G1 X2425.000 Y200.000 E2494.510
G1 X112.500 Y200.000 E76914.062
G1 X100.000 Y200.000 E415.752
G1 X37.500 Y200.000 E2078.758
G1 X0.000 Y200.000 E1247.255
G1 X0.000 Y5.000 E6485.726
G1 X0.000 Y0.000 E166.301
G1 X37.500 Y0.000 E1247.255
G1 X112.500 Y0.000 E2494.510
G1 X2425.000 Y0.000 E76914.062
G1 X2500.000 Y0.000 E2494.510
G1 X2500.000 Y5.714 E190.058
G1 X2500.000 Y8.000 E76.023
G1 X2500.000 Y22.222 E473.033
G1 X2500.000 Y25.000 E92.389
G1 X2500.000 Y90.625 E2182.696
G1 X2500.000 Y200.000 E3637.827
G1 F2400.0                     ;retraction feedrate
G1 E-1.0                       ;retract
G1 Z60.500                     ;z-hop
G1 F3600                       ;travel feedrate
G1 X3500.000 Y200.000 Z60.000
G1 F2400.0                     ;retraction feedrate
G1 Z60.000                     ;reverse z-hop
G1 E1.0                        ;unretract
G1 F1800                       ;print feedrate
G1 X3500.000 Y194.286 E190.058
G1 X3500.000 Y160.000 E1140.347
G1 X3500.000 Y125.000 E1164.105
G1 X3500.000 Y15.625 E3637.827
G1 X3500.000 Y0.000 E519.690
G1 X3812.500 Y0.000 E10393.792
G1 X3900.000 Y0.000 E2910.262
G1 X3985.714 Y0.000 E2850.869
G1 X4000.000 Y0.000 E475.145
G1 X4195.000 Y0.000 E6485.726
G1 X4200.000 Y0.000 E166.301
G1 X4492.500 Y0.000 E9728.590
G1 X4500.000 Y0.000 E249.451
G1 X4500.000 Y292.500 E9728.590
G1 X4500.000 Y300.000 E249.451
G1 X4207.500 Y300.000 E9728.590
G1 X4200.000 Y300.000 E249.451
G1 X4200.000 Y902.778 E20048.470
G1 X4200.000 Y975.000 E2402.121
G1 X4200.000 Y993.333 E609.769
G1 X4200.000 Y1000.000 E221.734
G1 X4005.000 Y1000.000 E6485.726
G1 X4000.000 Y1000.000 E166.301
G1 X4000.000 Y993.333 E221.734
G1 X4000.000 Y958.333 E1164.105
G1 X4000.000 Y900.000 E1940.175
G1 X4000.000 Y200.000 E23282.095
G1 X3985.714 Y200.000 E475.145
G1 X3833.333 Y200.000 E5068.211
G1 X3812.500 Y200.000 E692.919
