; G-code generated by bim-to-print v0.1.0
; Nozzle: 6.0mm
; Filament: 3.0mm
; ----------------------------------------
G21 ; millimetres
G90 ; absolute positioning
M82 ; absolute extrusion
G28 ; home all axes
G1 Z5.0 F3000 ; lift nozzle
; ----------------------------------------

; --- Layer 1 — Z=5.00 ---
; Profile: Column-01
G0 X4200.00 Y0.00 Z5.00 F6000
G1 X4200.00 Y0.00 Z5.00 E0.0 F1200
G1 X4200.00 Y300.00 Z5.00 E0.12 F1200
G1 X4500.00 Y300.00 Z5.00 E0.12 F1200
G1 X4500.00 Y0.00 Z5.00 E0.12 F1200
G1 X4200.00 Y0.00 Z5.00 E0.12 F1200
G1 X4200.00 Y0.00 Z5.00 E0.0 F1200
G0 X4492.00 Y292.00 Z5.00 F6000
G1 X4492.00 Y292.00 Z5.00 E0.0 F1200
G1 X4208.00 Y292.00 Z5.00 E0.1136 F1200
G1 X4208.00 Y8.00 Z5.00 E0.1136 F1200
G1 X4492.00 Y8.00 Z5.00 E0.1136 F1200
G1 X4492.00 Y292.00 Z5.00 E0.1136 F1200
G0 X4208.00 Y8.00 Z5.00 F6000
G1 X4208.00 Y292.00 Z5.00 E0.1136 F1200
G0 X4248.00 Y292.00 Z5.00 F6000
G1 X4248.00 Y8.00 Z5.00 E0.1136 F1200
G0 X4288.00 Y8.00 Z5.00 F6000
G1 X4288.00 Y292.00 Z5.00 E0.1136 F1200
G0 X4328.00 Y292.00 Z5.00 F6000
G1 X4328.00 Y8.00 Z5.00 E0.1136 F1200
G0 X4368.00 Y8.00 Z5.00 F6000
G1 X4368.00 Y292.00 Z5.00 E0.1136 F1200
G0 X4408.00 Y292.00 Z5.00 F6000
G1 X4408.00 Y8.00 Z5.00 E0.1136 F1200
G0 X4448.00 Y8.00 Z5.00 F6000
G1 X4448.00 Y292.00 Z5.00 E0.1136 F1200
G0 X4488.00 Y292.00 Z5.00 F6000
G1 X4488.00 Y8.00 Z5.00 E0.1136 F1200

; --- Layer 2 — Z=5.00 ---
; Profile: Main-Wall-01
G0 X0.00 Y0.00 Z5.00 F6000
G1 X0.00 Y0.00 Z5.00 E0.0 F1800
G1 X0.00 Y200.00 Z5.00 E0.08 F1800
G1 X4000.00 Y200.00 Z5.00 E1.6 F1800
G1 X4000.00 Y0.00 Z5.00 E0.08 F1800
G1 X0.00 Y0.00 Z5.00 E1.6 F1800
G1 X0.00 Y0.00 Z5.00 E0.0 F1800
G0 X3992.00 Y192.00 Z5.00 F6000
G1 X3992.00 Y192.00 Z5.00 E0.0 F1800
G1 X8.00 Y192.00 Z5.00 E1.5936 F1800
G1 X8.00 Y8.00 Z5.00 E0.0736 F1800
G1 X3992.00 Y8.00 Z5.00 E1.5936 F1800
G1 X3992.00 Y192.00 Z5.00 E0.0736 F1800
G0 X3504.00 Y-7.00 Z5.00 F6000
G1 X3504.00 Y-7.00 Z5.00 E0.0 F1800
G1 X3507.00 Y-4.00 Z5.00 E0.001697 F1800
G1 X3508.00 Y0.00 Z5.00 E0.001649 F1800
G1 X3508.00 Y200.00 Z5.00 E0.08 F1800
G1 X3507.00 Y204.00 Z5.00 E0.001649 F1800
G1 X3504.00 Y207.00 Z5.00 E0.001697 F1800
G1 X3500.00 Y208.00 Z5.00 E0.001649 F1800
G1 X2500.00 Y208.00 Z5.00 E0.4 F1800
G1 X2496.00 Y207.00 Z5.00 E0.001649 F1800
G1 X2493.00 Y204.00 Z5.00 E0.001697 F1800
G1 X2492.00 Y200.00 Z5.00 E0.001649 F1800
G1 X2492.00 Y0.00 Z5.00 E0.08 F1800
G1 X2493.00 Y-4.00 Z5.00 E0.001649 F1800
G1 X2496.00 Y-7.00 Z5.00 E0.001697 F1800
G1 X2500.00 Y-8.00 Z5.00 E0.001649 F1800
G1 X3500.00 Y-8.00 Z5.00 E0.4 F1800
G1 X3504.00 Y-7.00 Z5.00 E0.001649 F1800
G0 X8.00 Y8.00 Z5.00 F6000
G1 X8.00 Y192.00 Z5.00 E0.0736 F1800
G0 X48.00 Y192.00 Z5.00 F6000
G1 X48.00 Y8.00 Z5.00 E0.0736 F1800
G0 X88.00 Y8.00 Z5.00 F6000
G1 X88.00 Y192.00 Z5.00 E0.0736 F1800
G0 X128.00 Y192.00 Z5.00 F6000
G1 X128.00 Y8.00 Z5.00 E0.0736 F1800
G0 X168.00 Y8.00 Z5.00 F6000
G1 X168.00 Y192.00 Z5.00 E0.0736 F1800
G0 X208.00 Y192.00 Z5.00 F6000
G1 X208.00 Y8.00 Z5.00 E0.0736 F1800
G0 X248.00 Y8.00 Z5.00 F6000
G1 X248.00 Y192.00 Z5.00 E0.0736 F1800
G0 X288.00 Y192.00 Z5.00 F6000
G1 X288.00 Y8.00 Z5.00 E0.0736 F1800
G0 X328.00 Y8.00 Z5.00 F6000
G1 X328.00 Y192.00 Z5.00 E0.0736 F1800
G0 X368.00 Y192.00 Z5.00 F6000
G1 X368.00 Y8.00 Z5.00 E0.0736 F1800
G0 X408.00 Y8.00 Z5.00 F6000
G1 X408.00 Y192.00 Z5.00 E0.0736 F1800
G0 X448.00 Y192.00 Z5.00 F6000
G1 X448.00 Y8.00 Z5.00 E0.0736 F1800
G0 X488.00 Y8.00 Z5.00 F6000
G1 X488.00 Y192.00 Z5.00 E0.0736 F1800
G0 X528.00 Y192.00 Z5.00 F6000
G1 X528.00 Y8.00 Z5.00 E0.0736 F1800
G0 X568.00 Y8.00 Z5.00 F6000
G1 X568.00 Y192.00 Z5.00 E0.0736 F1800
G0 X608.00 Y192.00 Z5.00 F6000
G1 X608.00 Y8.00 Z5.00 E0.0736 F1800
G0 X648.00 Y8.00 Z5.00 F6000
G1 X648.00 Y192.00 Z5.00 E0.0736 F1800
G0 X688.00 Y192.00 Z5.00 F6000
G1 X688.00 Y8.00 Z5.00 E0.0736 F1800
G0 X728.00 Y8.00 Z5.00 F6000
G1 X728.00 Y192.00 Z5.00 E0.0736 F1800
G0 X768.00 Y192.00 Z5.00 F6000
G1 X768.00 Y8.00 Z5.00 E0.0736 F1800
G0 X808.00 Y8.00 Z5.00 F6000
G1 X808.00 Y192.00 Z5.00 E0.0736 F1800
G0 X848.00 Y192.00 Z5.00 F6000
G1 X848.00 Y8.00 Z5.00 E0.0736 F1800
G0 X888.00 Y8.00 Z5.00 F6000
G1 X888.00 Y192.00 Z5.00 E0.0736 F1800
G0 X928.00 Y192.00 Z5.00 F6000
G1 X928.00 Y8.00 Z5.00 E0.0736 F1800
G0 X968.00 Y8.00 Z5.00 F6000
G1 X968.00 Y192.00 Z5.00 E0.0736 F1800
G0 X1008.00 Y192.00 Z5.00 F6000
G1 X1008.00 Y8.00 Z5.00 E0.0736 F1800
G0 X1048.00 Y8.00 Z5.00 F6000
G1 X1048.00 Y192.00 Z5.00 E0.0736 F1800
G0 X1088.00 Y192.00 Z5.00 F6000
G1 X1088.00 Y8.00 Z5.00 E0.0736 F1800
G0 X1128.00 Y8.00 Z5.00 F6000
G1 X1128.00 Y192.00 Z5.00 E0.0736 F1800
G0 X1168.00 Y192.00 Z5.00 F6000
G1 X1168.00 Y8.00 Z5.00 E0.0736 F1800
G0 X1208.00 Y8.00 Z5.00 F6000
G1 X1208.00 Y192.00 Z5.00 E0.0736 F1800
G0 X1248.00 Y192.00 Z5.00 F6000
G1 X1248.00 Y8.00 Z5.00 E0.0736 F1800
G0 X1288.00 Y8.00 Z5.00 F6000
G1 X1288.00 Y192.00 Z5.00 E0.0736 F1800
G0 X1328.00 Y192.00 Z5.00 F6000
G1 X1328.00 Y8.00 Z5.00 E0.0736 F1800
G0 X1368.00 Y8.00 Z5.00 F6000
G1 X1368.00 Y192.00 Z5.00 E0.0736 F1800
G0 X1408.00 Y192.00 Z5.00 F6000
G1 X1408.00 Y8.00 Z5.00 E0.0736 F1800
G0 X1448.00 Y8.00 Z5.00 F6000
G1 X1448.00 Y192.00 Z5.00 E0.0736 F1800
G0 X1488.00 Y192.00 Z5.00 F6000
G1 X1488.00 Y8.00 Z5.00 E0.0736 F1800
G0 X1528.00 Y8.00 Z5.00 F6000
G1 X1528.00 Y192.00 Z5.00 E0.0736 F1800
G0 X1568.00 Y192.00 Z5.00 F6000
G1 X1568.00 Y8.00 Z5.00 E0.0736 F1800
G0 X1608.00 Y8.00 Z5.00 F6000
G1 X1608.00 Y192.00 Z5.00 E0.0736 F1800
G0 X1648.00 Y192.00 Z5.00 F6000
G1 X1648.00 Y8.00 Z5.00 E0.0736 F1800
G0 X1688.00 Y8.00 Z5.00 F6000
G1 X1688.00 Y192.00 Z5.00 E0.0736 F1800
G0 X1728.00 Y192.00 Z5.00 F6000
G1 X1728.00 Y8.00 Z5.00 E0.0736 F1800
G0 X1768.00 Y8.00 Z5.00 F6000
G1 X1768.00 Y192.00 Z5.00 E0.0736 F1800
G0 X1808.00 Y192.00 Z5.00 F6000
G1 X1808.00 Y8.00 Z5.00 E0.0736 F1800
G0 X1848.00 Y8.00 Z5.00 F6000
G1 X1848.00 Y192.00 Z5.00 E0.0736 F1800
G0 X1888.00 Y192.00 Z5.00 F6000
G1 X1888.00 Y8.00 Z5.00 E0.0736 F1800
G0 X1928.00 Y8.00 Z5.00 F6000
G1 X1928.00 Y192.00 Z5.00 E0.0736 F1800
G0 X1968.00 Y192.00 Z5.00 F6000
G1 X1968.00 Y8.00 Z5.00 E0.0736 F1800
G0 X2008.00 Y8.00 Z5.00 F6000
G1 X2008.00 Y192.00 Z5.00 E0.0736 F1800
G0 X2048.00 Y192.00 Z5.00 F6000
G1 X2048.00 Y8.00 Z5.00 E0.0736 F1800
G0 X2088.00 Y8.00 Z5.00 F6000
G1 X2088.00 Y192.00 Z5.00 E0.0736 F1800
G0 X2128.00 Y192.00 Z5.00 F6000
G1 X2128.00 Y8.00 Z5.00 E0.0736 F1800
G0 X2168.00 Y8.00 Z5.00 F6000
G1 X2168.00 Y192.00 Z5.00 E0.0736 F1800
G0 X2208.00 Y192.00 Z5.00 F6000
G1 X2208.00 Y8.00 Z5.00 E0.0736 F1800
G0 X2248.00 Y8.00 Z5.00 F6000
G1 X2248.00 Y192.00 Z5.00 E0.0736 F1800
G0 X2288.00 Y192.00 Z5.00 F6000
G1 X2288.00 Y8.00 Z5.00 E0.0736 F1800
G0 X2328.00 Y8.00 Z5.00 F6000
G1 X2328.00 Y192.00 Z5.00 E0.0736 F1800
G0 X2368.00 Y192.00 Z5.00 F6000
G1 X2368.00 Y8.00 Z5.00 E0.0736 F1800
G0 X2408.00 Y8.00 Z5.00 F6000
G1 X2408.00 Y192.00 Z5.00 E0.0736 F1800
G0 X2448.00 Y192.00 Z5.00 F6000
G1 X2448.00 Y8.00 Z5.00 E0.0736 F1800
G0 X2488.00 Y8.00 Z5.00 F6000
G1 X2488.00 Y192.00 Z5.00 E0.0736 F1800
G0 X3508.00 Y8.00 Z5.00 F6000
G1 X3508.00 Y192.00 Z5.00 E0.0736 F1800
G0 X3548.00 Y192.00 Z5.00 F6000
G1 X3548.00 Y8.00 Z5.00 E0.0736 F1800
G0 X3588.00 Y8.00 Z5.00 F6000
G1 X3588.00 Y192.00 Z5.00 E0.0736 F1800
G0 X3628.00 Y192.00 Z5.00 F6000
G1 X3628.00 Y8.00 Z5.00 E0.0736 F1800
G0 X3668.00 Y8.00 Z5.00 F6000
G1 X3668.00 Y192.00 Z5.00 E0.0736 F1800
G0 X3708.00 Y192.00 Z5.00 F6000
G1 X3708.00 Y8.00 Z5.00 E0.0736 F1800
G0 X3748.00 Y8.00 Z5.00 F6000
G1 X3748.00 Y192.00 Z5.00 E0.0736 F1800
G0 X3788.00 Y192.00 Z5.00 F6000
G1 X3788.00 Y8.00 Z5.00 E0.0736 F1800
G0 X3828.00 Y8.00 Z5.00 F6000
G1 X3828.00 Y192.00 Z5.00 E0.0736 F1800
G0 X3868.00 Y192.00 Z5.00 F6000
G1 X3868.00 Y8.00 Z5.00 E0.0736 F1800
G0 X3908.00 Y8.00 Z5.00 F6000
G1 X3908.00 Y192.00 Z5.00 E0.0736 F1800
G0 X3948.00 Y192.00 Z5.00 F6000
G1 X3948.00 Y8.00 Z5.00 E0.0736 F1800
G0 X3988.00 Y8.00 Z5.00 F6000
G1 X3988.00 Y192.00 Z5.00 E0.0736 F1800

; --- Layer 3 — Z=5.00 ---
; Profile: Side-Wall-01
G0 X4000.00 Y0.00 Z5.00 F6000
G1 X4000.00 Y0.00 Z5.00 E0.0 F1800
G1 X4000.00 Y1000.00 Z5.00 E0.4 F1800
G1 X4200.00 Y1000.00 Z5.00 E0.08 F1800
G1 X4200.00 Y0.00 Z5.00 E0.4 F1800
G1 X4000.00 Y0.00 Z5.00 E0.08 F1800
G1 X4000.00 Y0.00 Z5.00 E0.0 F1800
G0 X4192.00 Y992.00 Z5.00 F6000
G1 X4192.00 Y992.00 Z5.00 E0.0 F1800
G1 X4008.00 Y992.00 Z5.00 E0.0736 F1800
G1 X4008.00 Y8.00 Z5.00 E0.3936 F1800
G1 X4192.00 Y8.00 Z5.00 E0.0736 F1800
G1 X4192.00 Y992.00 Z5.00 E0.3936 F1800
G0 X4008.00 Y8.00 Z5.00 F6000
G1 X4008.00 Y992.00 Z5.00 E0.3936 F1800
G0 X4048.00 Y992.00 Z5.00 F6000
G1 X4048.00 Y8.00 Z5.00 E0.3936 F1800
G0 X4088.00 Y8.00 Z5.00 F6000
G1 X4088.00 Y992.00 Z5.00 E0.3936 F1800
G0 X4128.00 Y992.00 Z5.00 F6000
G1 X4128.00 Y8.00 Z5.00 E0.3936 F1800
G0 X4168.00 Y8.00 Z5.00 F6000
G1 X4168.00 Y992.00 Z5.00 E0.3936 F1800

; --- Layer 4 — Z=15.00 ---
; Profile: Column-01
G0 X4200.00 Y0.00 Z15.00 F6000
G1 X4200.00 Y0.00 Z15.00 E0.0 F1800
G1 X4200.00 Y300.00 Z15.00 E0.36 F1800
G1 X4500.00 Y300.00 Z15.00 E0.36 F1800
G1 X4500.00 Y0.00 Z15.00 E0.36 F1800
G1 X4200.00 Y0.00 Z15.00 E0.36 F1800
G1 X4200.00 Y0.00 Z15.00 E0.0 F1800
G0 X4492.00 Y292.00 Z15.00 F6000
G1 X4492.00 Y292.00 Z15.00 E0.0 F1800
G1 X4208.00 Y292.00 Z15.00 E0.3408 F1800
G1 X4208.00 Y8.00 Z15.00 E0.3408 F1800
G1 X4492.00 Y8.00 Z15.00 E0.3408 F1800
G1 X4492.00 Y292.00 Z15.00 E0.3408 F1800
G0 X4208.00 Y8.00 Z15.00 F6000
G1 X4208.00 Y292.00 Z15.00 E0.3408 F1800
G0 X4248.00 Y292.00 Z15.00 F6000
G1 X4248.00 Y8.00 Z15.00 E0.3408 F1800
G0 X4288.00 Y8.00 Z15.00 F6000
G1 X4288.00 Y292.00 Z15.00 E0.3408 F1800
G0 X4328.00 Y292.00 Z15.00 F6000
G1 X4328.00 Y8.00 Z15.00 E0.3408 F1800
G0 X4368.00 Y8.00 Z15.00 F6000
G1 X4368.00 Y292.00 Z15.00 E0.3408 F1800
G0 X4408.00 Y292.00 Z15.00 F6000
G1 X4408.00 Y8.00 Z15.00 E0.3408 F1800
G0 X4448.00 Y8.00 Z15.00 F6000
G1 X4448.00 Y292.00 Z15.00 E0.3408 F1800
G0 X4488.00 Y292.00 Z15.00 F6000
G1 X4488.00 Y8.00 Z15.00 E0.3408 F1800

; --- Layer 5 — Z=15.00 ---
; Profile: Main-Wall-01
G0 X0.00 Y0.00 Z15.00 F6000
G1 X0.00 Y0.00 Z15.00 E0.0 F1800
G1 X0.00 Y200.00 Z15.00 E0.24 F1800
G1 X4000.00 Y200.00 Z15.00 E4.8 F1800
G1 X4000.00 Y0.00 Z15.00 E0.24 F1800
G1 X0.00 Y0.00 Z15.00 E4.8 F1800
G1 X0.00 Y0.00 Z15.00 E0.0 F1800
G0 X3992.00 Y192.00 Z15.00 F6000
G1 X3992.00 Y192.00 Z15.00 E0.0 F1800
G1 X8.00 Y192.00 Z15.00 E4.7808 F1800
G1 X8.00 Y8.00 Z15.00 E0.2208 F1800
G1 X3992.00 Y8.00 Z15.00 E4.7808 F1800
G1 X3992.00 Y192.00 Z15.00 E0.2208 F1800
G0 X3504.00 Y-7.00 Z15.00 F6000
G1 X3504.00 Y-7.00 Z15.00 E0.0 F1800
G1 X3507.00 Y-4.00 Z15.00 E0.005091 F1800
G1 X3508.00 Y0.00 Z15.00 E0.004948 F1800
G1 X3508.00 Y200.00 Z15.00 E0.24 F1800
G1 X3507.00 Y204.00 Z15.00 E0.004948 F1800
G1 X3504.00 Y207.00 Z15.00 E0.005091 F1800
G1 X3500.00 Y208.00 Z15.00 E0.004948 F1800
G1 X2500.00 Y208.00 Z15.00 E1.2 F1800
G1 X2496.00 Y207.00 Z15.00 E0.004948 F1800
G1 X2493.00 Y204.00 Z15.00 E0.005091 F1800
G1 X2492.00 Y200.00 Z15.00 E0.004948 F1800
G1 X2492.00 Y0.00 Z15.00 E0.24 F1800
G1 X2493.00 Y-4.00 Z15.00 E0.004948 F1800
G1 X2496.00 Y-7.00 Z15.00 E0.005091 F1800
G1 X2500.00 Y-8.00 Z15.00 E0.004948 F1800
G1 X3500.00 Y-8.00 Z15.00 E1.2 F1800
G1 X3504.00 Y-7.00 Z15.00 E0.004948 F1800
G0 X8.00 Y8.00 Z15.00 F6000
G1 X8.00 Y192.00 Z15.00 E0.2208 F1800
G0 X48.00 Y192.00 Z15.00 F6000
G1 X48.00 Y8.00 Z15.00 E0.2208 F1800
G0 X88.00 Y8.00 Z15.00 F6000
G1 X88.00 Y192.00 Z15.00 E0.2208 F1800
G0 X128.00 Y192.00 Z15.00 F6000
G1 X128.00 Y8.00 Z15.00 E0.2208 F1800
G0 X168.00 Y8.00 Z15.00 F6000
G1 X168.00 Y192.00 Z15.00 E0.2208 F1800
G0 X208.00 Y192.00 Z15.00 F6000
G1 X208.00 Y8.00 Z15.00 E0.2208 F1800
G0 X248.00 Y8.00 Z15.00 F6000
G1 X248.00 Y192.00 Z15.00 E0.2208 F1800
G0 X288.00 Y192.00 Z15.00 F6000
G1 X288.00 Y8.00 Z15.00 E0.2208 F1800
G0 X328.00 Y8.00 Z15.00 F6000
G1 X328.00 Y192.00 Z15.00 E0.2208 F1800
G0 X368.00 Y192.00 Z15.00 F6000
G1 X368.00 Y8.00 Z15.00 E0.2208 F1800
G0 X408.00 Y8.00 Z15.00 F6000
G1 X408.00 Y192.00 Z15.00 E0.2208 F1800
G0 X448.00 Y192.00 Z15.00 F6000
G1 X448.00 Y8.00 Z15.00 E0.2208 F1800
G0 X488.00 Y8.00 Z15.00 F6000
G1 X488.00 Y192.00 Z15.00 E0.2208 F1800
G0 X528.00 Y192.00 Z15.00 F6000
G1 X528.00 Y8.00 Z15.00 E0.2208 F1800
G0 X568.00 Y8.00 Z15.00 F6000
G1 X568.00 Y192.00 Z15.00 E0.2208 F1800
G0 X608.00 Y192.00 Z15.00 F6000
G1 X608.00 Y8.00 Z15.00 E0.2208 F1800
G0 X648.00 Y8.00 Z15.00 F6000
G1 X648.00 Y192.00 Z15.00 E0.2208 F1800
G0 X688.00 Y192.00 Z15.00 F6000
G1 X688.00 Y8.00 Z15.00 E0.2208 F1800
G0 X728.00 Y8.00 Z15.00 F6000
G1 X728.00 Y192.00 Z15.00 E0.2208 F1800
G0 X768.00 Y192.00 Z15.00 F6000
G1 X768.00 Y8.00 Z15.00 E0.2208 F1800
G0 X808.00 Y8.00 Z15.00 F6000
G1 X808.00 Y192.00 Z15.00 E0.2208 F1800
G0 X848.00 Y192.00 Z15.00 F6000
G1 X848.00 Y8.00 Z15.00 E0.2208 F1800
G0 X888.00 Y8.00 Z15.00 F6000
G1 X888.00 Y192.00 Z15.00 E0.2208 F1800
G0 X928.00 Y192.00 Z15.00 F6000
G1 X928.00 Y8.00 Z15.00 E0.2208 F1800
G0 X968.00 Y8.00 Z15.00 F6000
G1 X968.00 Y192.00 Z15.00 E0.2208 F1800
G0 X1008.00 Y192.00 Z15.00 F6000
G1 X1008.00 Y8.00 Z15.00 E0.2208 F1800
G0 X1048.00 Y8.00 Z15.00 F6000
G1 X1048.00 Y192.00 Z15.00 E0.2208 F1800
G0 X1088.00 Y192.00 Z15.00 F6000
G1 X1088.00 Y8.00 Z15.00 E0.2208 F1800
G0 X1128.00 Y8.00 Z15.00 F6000
G1 X1128.00 Y192.00 Z15.00 E0.2208 F1800
G0 X1168.00 Y192.00 Z15.00 F6000
G1 X1168.00 Y8.00 Z15.00 E0.2208 F1800
G0 X1208.00 Y8.00 Z15.00 F6000
G1 X1208.00 Y192.00 Z15.00 E0.2208 F1800
G0 X1248.00 Y192.00 Z15.00 F6000
G1 X1248.00 Y8.00 Z15.00 E0.2208 F1800
G0 X1288.00 Y8.00 Z15.00 F6000
G1 X1288.00 Y192.00 Z15.00 E0.2208 F1800
G0 X1328.00 Y192.00 Z15.00 F6000
G1 X1328.00 Y8.00 Z15.00 E0.2208 F1800
G0 X1368.00 Y8.00 Z15.00 F6000
G1 X1368.00 Y192.00 Z15.00 E0.2208 F1800
G0 X1408.00 Y192.00 Z15.00 F6000
G1 X1408.00 Y8.00 Z15.00 E0.2208 F1800
G0 X1448.00 Y8.00 Z15.00 F6000
G1 X1448.00 Y192.00 Z15.00 E0.2208 F1800
G0 X1488.00 Y192.00 Z15.00 F6000
G1 X1488.00 Y8.00 Z15.00 E0.2208 F1800
G0 X1528.00 Y8.00 Z15.00 F6000
G1 X1528.00 Y192.00 Z15.00 E0.2208 F1800
G0 X1568.00 Y192.00 Z15.00 F6000
G1 X1568.00 Y8.00 Z15.00 E0.2208 F1800
G0 X1608.00 Y8.00 Z15.00 F6000
G1 X1608.00 Y192.00 Z15.00 E0.2208 F1800
G0 X1648.00 Y192.00 Z15.00 F6000
G1 X1648.00 Y8.00 Z15.00 E0.2208 F1800
G0 X1688.00 Y8.00 Z15.00 F6000
G1 X1688.00 Y192.00 Z15.00 E0.2208 F1800
G0 X1728.00 Y192.00 Z15.00 F6000
G1 X1728.00 Y8.00 Z15.00 E0.2208 F1800
G0 X1768.00 Y8.00 Z15.00 F6000
G1 X1768.00 Y192.00 Z15.00 E0.2208 F1800
G0 X1808.00 Y192.00 Z15.00 F6000
G1 X1808.00 Y8.00 Z15.00 E0.2208 F1800
G0 X1848.00 Y8.00 Z15.00 F6000
G1 X1848.00 Y192.00 Z15.00 E0.2208 F1800
G0 X1888.00 Y192.00 Z15.00 F6000
G1 X1888.00 Y8.00 Z15.00 E0.2208 F1800
G0 X1928.00 Y8.00 Z15.00 F6000
G1 X1928.00 Y192.00 Z15.00 E0.2208 F1800
G0 X1968.00 Y192.00 Z15.00 F6000
G1 X1968.00 Y8.00 Z15.00 E0.2208 F1800
G0 X2008.00 Y8.00 Z15.00 F6000
G1 X2008.00 Y192.00 Z15.00 E0.2208 F1800
G0 X2048.00 Y192.00 Z15.00 F6000
G1 X2048.00 Y8.00 Z15.00 E0.2208 F1800
G0 X2088.00 Y8.00 Z15.00 F6000
G1 X2088.00 Y192.00 Z15.00 E0.2208 F1800
G0 X2128.00 Y192.00 Z15.00 F6000
G1 X2128.00 Y8.00 Z15.00 E0.2208 F1800
G0 X2168.00 Y8.00 Z15.00 F6000
G1 X2168.00 Y192.00 Z15.00 E0.2208 F1800
G0 X2208.00 Y192.00 Z15.00 F6000
G1 X2208.00 Y8.00 Z15.00 E0.2208 F1800
G0 X2248.00 Y8.00 Z15.00 F6000
G1 X2248.00 Y192.00 Z15.00 E0.2208 F1800
G0 X2288.00 Y192.00 Z15.00 F6000
G1 X2288.00 Y8.00 Z15.00 E0.2208 F1800
G0 X2328.00 Y8.00 Z15.00 F6000
G1 X2328.00 Y192.00 Z15.00 E0.2208 F1800
G0 X2368.00 Y192.00 Z15.00 F6000
G1 X2368.00 Y8.00 Z15.00 E0.2208 F1800
G0 X2408.00 Y8.00 Z15.00 F6000
G1 X2408.00 Y192.00 Z15.00 E0.2208 F1800
G0 X2448.00 Y192.00 Z15.00 F6000
G1 X2448.00 Y8.00 Z15.00 E0.2208 F1800
G0 X2488.00 Y8.00 Z15.00 F6000
G1 X2488.00 Y192.00 Z15.00 E0.2208 F1800
G0 X3508.00 Y8.00 Z15.00 F6000
G1 X3508.00 Y192.00 Z15.00 E0.2208 F1800
G0 X3548.00 Y192.00 Z15.00 F6000
G1 X3548.00 Y8.00 Z15.00 E0.2208 F1800
G0 X3588.00 Y8.00 Z15.00 F6000
G1 X3588.00 Y192.00 Z15.00 E0.2208 F1800
G0 X3628.00 Y192.00 Z15.00 F6000
G1 X3628.00 Y8.00 Z15.00 E0.2208 F1800
G0 X3668.00 Y8.00 Z15.00 F6000
G1 X3668.00 Y192.00 Z15.00 E0.2208 F1800
G0 X3708.00 Y192.00 Z15.00 F6000
G1 X3708.00 Y8.00 Z15.00 E0.2208 F1800
